X:0076
T:Miss Ramsay's Reel.
M:2/4
L:1/16
Q:1/4=112
I: :: ::
% E G A B c d e ^f g a b
Z:Jack Campin * www.campin.me.uk * 2009
K:G
g2|(bagf) g2d2|B2G2 G2B2|c2A2 B2G2| A2G2 E2
g2|(bagf) g2d2|B2G2 G2B2|c2A2 d2B2| GGG2 G2:|
e2| d2g2- g2e2|d2b2-b2a2|g2e2 d2B2|TA3G  E2
e2| d2g2  g2e2|d2b2 b2a2|g2e2 d2B2| GGG2 G2:|

